X:53
T:Banish misfortune
C:anon.
O:Ireland
R:Double jig
B:O'Neills's 1001
Z:Transcribed by Frank Nordberg - http://www.musicaviva.com
%http://www.musicaviva.com/abc/oneill100.abc
M:6/8
L:1/8
K:D
A/G/|F2D DED|DEF GFG|A3 cAG|ABc (d/c/A)G|F2D DED|DEF GFG|AdA cde|d3 d2::d/e/|fdd dcd|
dfa agf|e2c/c/ cBc|(e/d/)ef gfe|[1f2d/d/ dcd|dfa agf|(g/f/e)d cde|d3 d2:|[2 fga gab|afd ecA|
fed cde|d3 d2||d/e/|(f/d/d).f (e/d/c).e|(d/c/A).B cAG|F2D DED|DEF GFG|(A/G/A).B cAG|AdB cde|fed cde|d3 d2:|


